svgs/sharp-regular/text-size.svg

<svg xmlns="http://www.w3.org/2000/svg" viewBox="0 0 640 512"><!--! Font Awesome Pro 6.6.0 by @fontawesome - https://fontawesome.com License - https://fontawesome.com/license (Commercial License) Copyright 2024 Fonticons, Inc. --><path d="M24 32L0 32 0 56l0 72 0 24 48 0 0-24 0-48 120 0 0 352-48 0-24 0 0 48 24 0 144 0 24 0 0-48-24 0-48 0 0-352 120 0 0 48 0 24 48 0 0-24 0-72 0-24-24 0L24 32zM336 224l-24 0 0 24 0 48 0 24 48 0 0-24 0-24 96 0 0 160-32 0-24 0 0 48 24 0 112 0 24 0 0-48-24 0-32 0 0-160 88 0 0 24 0 24 48 0 0-24 0-48 0-24-24 0-280 0z"/></svg>

<svg xmlns="http://www.w3.org/2000/svg" viewBox="0 0 640 512"><!--! Font Awesome Pro 6.4.0 by @fontawesome - https://fontawesome.com License - https://fontawesome.com/license (Commercial License) Copyright 2023 Fonticons, Inc. --><path d="M24 32H0V56v72 24H48V128 80H168l0 352H120 96v48h24H264h24V432H264 216l0-352H336v48 24h48V128 56 32H360 24zM336 224H312v24 48 24h48V296 272h96l0 160H424 400v48h24H536h24V432H536 504l0-160h88v24 24h48V296 248 224H616 336z"/></svg>
